!!!!SEGMENT: pl-wumfc--r300--003_paderewski-ignacy-jan--canons-canon-3.krn
!!!cenid: 18xx:3215
!!!COM: Paderewski, Ignacy Jan
!!!COM-rismID: pe30029943
!!!CDT: 1860/11/18-1941/06/29
!!!CNT: Polish
!!!GTL: [Canons]
!!!OTL: [Canon 3]
!!!PDT:
!!!AGN:
!!!SMS-siglum: PL-Wumfc
!!!SMS-shelfmark: R300
!!!SMS-shelfwork: 003 G
!!!SMS-variant:
!!!SMS-altvar:
!!!NIFC-rismSourceID: 1001159509
!!!NIFC-islandoraID: pl-wumfc:624
!!!URL-pdf-islandora: https://repozytorium.nifc.pl/islandora/object/pl-wumfc%3A624/datastream/PDF/view
!!!URL-scan: https://polish.musicsources.pl/pl/lokalizacje/galeria/rekopisy/4721 @EN{Scan on Polish Music Herritage in Open Access Website} @PL{Skany w portalu Dziedzictwo Muzyki Polskiej w otwartym dostępie}
!!!ONB-nifc: UWAGA: skan 0002, prawa strona – skan 0003, pierwszy system
!!!AIN: 2 forte
!!!key:
**kern	**kern
*part2	*part1
*staff2	*staff1
*Iforte	*Iforte
*I"[Fortepian]	*I"[Fortepian]
*I'pf	*I'pf
*clefF4	*clefG2
*k[f#]	*k[f#]
*G:	*G:
*M4/4	*M4/4
=1	=1
*^	*^
8G/L	4r	1r	2r
8G/	.	.	.
8F#/	4r	.	.
8D/J	.	.	.
8E/L	4r	.	2r
8F#/	.	.	.
8G/	4r	.	.
8A/J	.	.	.
=2	=2	=2	=2
4B/	8G\L	1rdd	2rb
.	8G\	.	.
[4d/	8F#\	.	.
.	8D\J	.	.
8d/L]	8E\L	.	2rb
16c/L	8F#\	.	.
16d/J	.	.	.
8B/	8G\	.	.
8A/J	8A\J	.	.
=3	=3	=3	=3
8B/L	8G\L	1ryy	8e\L
16c/L	16A\L	.	8e\
16B/JJ	16G\J	.	.
[<4A/	8F#\	.	8d#X\
.	8D#X\J	.	8B\J
4A/]	8C#X\L	.	8c#X\L
.	8BB\	.	8d#\
8G/L	8E\	.	8e\
8d/J	16Dn\L	.	8f#\J
.	16Cn\JJ	.	.
=4	=4	=4	=4
8d/L	4BB\	4g/	8g\L
16G/L	.	.	16B\L
16A/JJ	.	.	16c\JJ
8B/L	4GG\	4g/	8d\L
16c/L	.	.	16e\L
16B/JJ	.	.	16d\JJ
8A/L	8AA\L	4f#/	8c\L
8G/J	16BB\L	.	8B\J
.	16C\JJ	.	.
4G/	8D\L	4d/	4A\
.	16E\L	.	.
.	16D\JJ	.	.
!!LO:LB:g=original
=5	=5	=5	=5
8E/L	4C\	4e/	[4A\
16F#/L	.	.	.
16E/JJ	.	.	.
4D#X/	4BB\	4f#/	8A\L]
.	.	.	16B\L
.	.	.	16A\JJ
8E/L	4E\	4g/	8G\L
8F#/	.	.	8A\
8G/	8E-X\L	4g;/	8B\
8A/J	8Dn\J	.	8c\J
=6	=6	=6	=6
4G/	8C\L	1g;	4d\
.	16BB\L	.	.
.	16AA\JJ	.	.
4G/	4C\	.	8e\L
.	.	.	8e-X\J
2B/	2G\	.	2d;>\
=7	=7	=7	=7
4r	1r	1r	8A\L
.	.	.	8B\
4r	.	.	8c\
.	.	.	8c\J
8E/L	.	.	4e\
8F#/	.	.	.
8G#X/	.	.	4d\
8G#/J	.	.	.
=8	=8	=8	=8
2A/	8AA\L	1r	4c\
.	8BB\	.	.
.	8C\	.	4e\
.	8C\J	.	.
8G/L	4E\	.	4g\
8A/	.	.	.
8B/	4D\	.	4fn\
8B/J	.	.	.
=9	=9	=9	=9
8c/L	4C\	4a/	8e\L
16d/L	.	.	8fn\
16c/JJ	.	.	.
4B/	4GG#X\	4b/	8e\
.	.	.	8d\J
2A/	8AA\L	4cc/	8c\L
.	8BB\	.	8d\
.	8C\	4cc/	8e\
.	8D\J	.	8f#X\J
!!LO:LB:g=original
=10	=10	=10	=10
8G/L	2E\	4b/	4.g\
8A/	.	.	.
[<8B/	.	4b/	.
8B/J]	.	.	8f#\
8c/L	2AA\	2a/	8e\L
8d/	.	.	8fn\
8c/	.	.	8e\
8B/J	.	.	8d\J
=11	=11	=11	=11
8A/L	1AA;	1a;	8c\L
8Fn/	.	.	8d\
8E/	.	.	8c\
8D/J	.	.	8B\J
2E;/	.	.	2c;>\
=12	=12	=12	=12
!	!	!LO:TX:a:t=oder	!
8A/L	1AA;	1a;	8c\L
8Fn/	.	.	8d\
8F#X/	.	.	8c\
8G#X/J	.	.	8B\J
2A;/	.	.	2A;>\
=13	=13	=13	=13
4r	1r	1r	8b\L
.	.	.	8cc\
4r	.	.	8dd\
.	.	.	8g\J
8d/L	.	.	4f#\
8e/	.	.	.
8f#/	.	.	4a\
8d/J	.	.	.
=14	=14	=14	=14
8c/L	8A\L	1r	[2cc\
8d/J	8B\	.	.
4e/	8c\	.	.
.	8E\J	.	.
4d/	8F#\L	.	2cc\]
.	8G\	.	.
4f#/	8A\	.	.
.	8D\J	.	.
=15	=15	=15	=15
8g/L	[2G\	4b/	8b\L
8f#/J	.	.	8a\J
8e/L	.	4cc/	8g\L
16d/L	.	.	16f#\L
16c/JJ	.	.	16e\JJ
!!LO:LB:g=original
8B/L	2G\]	4dd/	8d\L
16c/L	.	.	16e\L
16A/JJ	.	.	16f#\JJ
4B/	.	4g/	8g\L
.	.	.	8B\J
=16	=16	=16	=16
4A/	8D\L	4f#/	[4d\
.	8C#X\J	.	.
4B/	8BB\L	4g/	8d\L]
.	16E\L	.	[>8e\J
.	16D\JJ	.	.
8A/L	8C#\L	4a/	4e\]
16B/L	16D\L	.	.
16c#X/JJ	16E\JJ	.	.
4d/	8F#\L	4a/	4d\
.	8D\J	.	.
=17	=17	=17	=17
8c/L	1AA;	1a;	8e\L
8d/	.	.	8fn\
8c/	.	.	8e\
8Fn/J	.	.	8d\J
2A;/	.	.	2c;>\
=18	=18	=18	=18
8B/L	2r	1rdd	2rb
8B/	.	.	.
8A/	.	.	.
8A/J	.	.	.
4c/	8E\L	.	2rb
.	8E\	.	.
4B/	8D\	.	.
.	8D\J	.	.
=19	=19	=19	=19
2G/	8C\L	1rgg	8e/L
.	8C\	.	8e/
.	8BB\	.	8d/
.	8BB\J	.	8d/J
8c/L	4AA\	.	4f#\
8c/	.	.	.
8B/	4GG\	.	4g\
8B/J	.	.	.
!!LO:LB:g=original
=20	=20	=20	=20
8G/L	4GG\	4b/	8B\L
8A/	.	.	8c\
8B/	4G\	4b/	8d\
8c/J	.	.	8e\J
8d/L	2D\	4a/	8f#\L
8e/	.	.	8g\J
8d/	.	4a/	4f#\
8c/J	.	.	.
=21	=21	=21	=21
8B/L	8E\L	4g/	2e\
8A/	8F#\	.	.
8B/	8G\	4g/	.
8c/J	8A\J	.	.
2d/	8B\L	4f#/	2d\
.	8BB\	.	.
.	8C#X\	4f#/	.
.	8D\J	.	.
=22	=22	=22	=22
8F#/L	1DD;>	1f#;	1d;
8G/	.	.	.
8A/	.	.	.
8B/J	.	.	.
8A/L	.	.	.
8G/J	.	.	.
4F#;/	.	.	.
=23	=23	=23	=23
8G/L	2r	1rdd	2rcc
8G/	.	.	.
8A/	.	.	.
8A/J	.	.	.
8B/	8G\L	.	2rcc
4e/	8G\	.	.
.	8A\	.	.
8d#X/	8A\J	.	.
=24	=24	=24	=24
8e/	4G\	1rg	8e\L
4B/	.	.	8e\
.	4D#X\	.	8f#\
8A/	.	.	8f#\J
4G/	4E\	.	8g\
.	.	.	4b\
8F#/L	4D#X\	.	.
8B/J	.	.	8a\
!!LO:LB:g=original
=25	=25	=25	=25
8B/L	2E\	4g/	8g\L
8d/	.	.	8f#\
8c/	.	4g/	8e\
8B/J	.	.	8d\J
8A/L	2AA\	4a/	8c\L
8B/	.	.	8d\
8c/	.	4a/	8e\
8A/J	.	.	8c\J
=26	=26	=26	=26
2G#X/	2EE\	4b/	8e\L
.	.	.	8f#\
.	.	4b/	8e\
.	.	.	8d\J
8A/L	2AA\	2cc/	2c\
8B/	.	.	.
8A/	.	.	.
8Fn/J	.	.	.
=27	=27	=27	=27
1E;	1AA;	1cc;	1c;
=28	=28	=28	=28
8B/L	4r	1rdd	2rcc
8B/	.	.	.
8A/	4r	.	.
8G/J	.	.	.
2d/	8F#\L	.	2rcc
.	8F#\	.	.
.	8E\	.	.
.	8D\J	.	.
=29	=29	=29	=29
8e/L	2C\	1rgyy	8e\L
8E/J	.	.	8e\
[4G/	.	.	8d\
.	.	.	8c\J
4G/]	8BB\L	.	2g\
.	8BB\	.	.
8A/L	8AA\	.	.
8B/J	8GG\J	.	.
!!LO:PB:g=original
=30	=30	=30	=30
8B/L	4GG\	4b/	8d\L
8A/	.	.	8c\
8B/	4G\	4b/	8d\
8c/J	.	.	8e\J
8d/L	4D\	4a/	4f#\
8c/J	.	.	.
4B/	4E\	4g/	8e\L
.	.	.	8f#\J
=31	=31	=31	=31
8c/L	4C\	4g/	4e\
8B/J	.	.	.
4A/	4D\	4f#/	8d\L
.	.	.	8c\J
8G/L	2GG\	2g/	8B\L
8A/	.	.	8c\
8G/	.	.	8B\
8D/J	.	.	8A\J
=32	=32	=32	=32
1G;	1GG;	1g;	1B;
*v	*v	*	*
*	*v	*v
==	==
*-	*-
!!!system-decoration: [(s1,s2)]
!!!RDF**kern: > = above
!!!RDF**kern: < = below
!!!ENC: Anastazja Marusiak
!!!END: 2021-11-13
!!!ENC: Leszek Kubiak
!!!END: 2021-11-17
